X: 10911
M: C
L: 1/8
K: G
(cB) (AG) {B}A2 (GA) | B2A>G G2 :|\
|: (d/e/f) |\
(g>f)(ga) gbag | f>efg fagf |
(e>def) (gf)(ed) | B2e>f e2 (e/f/g) |\
{c}B2AG d2(cB) | edef Hg3 {ab}B |\
(cB) AG A2GA | B2 TA>G G2 :|


